X:316
T:New Rigged Ship
R:Jig
M:6/8
L:1/8
K:G
|:D|GFG G2B|GFG G2B|AFD DFG|ADD DEF|
GFG G2B|GFG G2B|AFD DEF|G3G2:|
|:B/2c/2|d2B d2B|G2G GBd|e2c e2c|A2A ABc|
d2B d2B|G2G GAB|AFD DEF|G3G2:|
